ir/historic-shield-alt.svg

<svg stroke-width="1.5" viewBox="0 0 24 24" fill="none" xmlns="http://www.w3.org/2000/svg" height="1em" width="1em">
  <path d="M11.7317 21.8658L6.21115 19.1056C4.85601 18.428 4 17.043 4 15.5279V2.6C4 2.26863 4.26863 2 4.6 2H19.4C19.7314 2 20 2.26863 20 2.6V15.5279C20 17.043 19.144 18.428 17.7889 19.1056L12.2683 21.8658C12.0994 21.9503 11.9006 21.9503 11.7317 21.8658Z" stroke="currentColor" stroke-linecap="round" stroke-linejoin="round"/>
  <path d="M12 10V2" stroke="currentColor" stroke-linecap="round" stroke-linejoin="round"/>
  <path d="M4 10H20" stroke="currentColor" stroke-linecap="round" stroke-linejoin="round"/>
</svg>

<svg stroke-width="1.5" viewBox="0 0 24 24" fill="none" xmlns="http://www.w3.org/2000/svg" height="1em" width="1em">
  <path d="m11.732 21.866-5.52-2.76A4 4 0 0 1 4 15.528V2.6a.6.6 0 0 1 .6-.6h14.8a.6.6 0 0 1 .6.6v12.928a4 4 0 0 1-2.211 3.578l-5.52 2.76a.6.6 0 0 1-.537 0ZM12 10V2m-8 8h16" stroke="currentColor" stroke-linecap="round" stroke-linejoin="round"/>
</svg>
